source/wp-content/themes/wporg-news-2021/images/podcast-services/apple-podcasts.svg

<svg width="271" height="270" viewBox="0 0 271 270" fill="none" xmlns="http://www.w3.org/2000/svg">
<g clip-path="url(#clip0_8530:32596)">
<path d="M60.1958 0.000152385C52.3017 -0.0176474 44.4817 1.52409 37.185 4.53684C29.8884 7.54959 23.2587 11.974 17.6766 17.556C12.0946 23.1381 7.6702 29.7678 4.65745 37.0644C1.6447 44.3611 0.102958 52.181 0.120758 60.0752V209.925C0.102958 217.82 1.6447 225.639 4.65745 232.936C7.6702 240.233 12.0946 246.863 17.6766 252.445C23.2587 258.027 29.8884 262.451 37.185 265.464C44.4817 268.476 52.3017 270.018 60.1958 270H210.046C217.94 270.018 225.76 268.476 233.057 265.464C240.353 262.451 246.983 258.027 252.565 252.445C258.147 246.863 262.572 240.233 265.584 232.936C268.597 225.639 270.139 217.82 270.121 209.925V60.0752C270.139 52.181 268.597 44.3611 265.584 37.0644C262.572 29.7678 258.147 23.1381 252.565 17.556C246.983 11.974 240.353 7.54959 233.057 4.53684C225.76 1.52409 217.94 -0.0176474 210.046 0.000152385H60.1958ZM133.602 28.8902C159.882 28.8902 183.642 39.0377 201.732 57.994C215.502 72.304 223.242 87.4577 227.202 107.404C228.552 114.042 228.552 132.154 227.281 139.624C223.072 163.367 210.054 184.646 190.831 199.204C183.991 204.379 167.251 213.39 164.551 213.39C163.561 213.39 163.471 212.367 163.921 208.215C164.731 201.555 165.541 200.172 169.321 198.585C175.351 196.065 185.611 188.753 191.911 182.442C202.894 171.464 210.701 157.718 214.501 142.662C216.841 133.392 216.571 112.782 213.961 103.242C205.771 72.9115 181.021 49.3315 150.691 43.0314C141.871 41.2314 125.851 41.2314 116.941 43.0314C86.2508 49.3315 60.8708 74.0815 53.1308 105.222C51.0608 113.682 51.0608 134.292 53.1308 142.752C58.2608 163.362 71.5808 182.262 89.0408 193.512C92.4608 195.762 96.6009 198.102 98.3109 198.822C102.091 200.442 102.901 201.792 103.621 208.452C104.071 212.502 103.958 213.672 102.991 213.672C102.361 213.672 97.7709 211.692 92.9109 209.352L92.4609 209.014C64.6508 195.334 46.8308 172.182 40.3508 141.379C38.7308 133.437 38.4608 114.469 40.0133 107.179C44.0633 87.604 51.8033 72.304 64.6733 58.759C83.2133 39.2177 107.063 28.8789 133.613 28.8789L133.602 28.8902ZM135.11 60.5027C139.711 60.5477 144.143 60.9527 147.552 61.6952C178.872 68.6702 201.102 100.035 196.782 131.153C195.072 143.685 190.752 153.99 183.102 163.553C179.322 168.39 170.142 176.49 168.522 176.49C168.263 176.49 167.982 173.43 167.982 169.707V162.9L172.662 157.32C190.302 136.193 189.042 106.673 169.782 87.3002C162.312 79.7627 153.672 75.3302 142.512 73.2827C135.312 71.9552 133.782 71.9552 126.222 73.1927C114.747 75.0715 105.86 79.5152 97.9621 87.3227C78.6121 106.493 77.3521 136.17 94.9921 157.32L99.6384 162.9V169.74C99.6384 173.52 99.3346 176.58 98.9634 176.58C98.6259 176.58 95.9934 174.78 93.2034 172.53L92.8208 172.407C83.4608 164.937 75.1808 151.684 71.7608 138.69C69.6908 130.838 69.6908 115.92 71.8508 108.09C77.5208 86.9627 93.0909 70.5715 114.691 62.8765C119.303 61.2452 127.437 60.4015 135.098 60.5027H135.11ZM133.647 94.1402C137.135 94.1402 140.622 94.8152 143.142 96.1427C148.632 98.989 153.132 104.524 154.842 110.307C160.062 128.059 141.252 143.607 124.242 135.664H124.073C116.063 131.94 111.743 124.909 111.653 115.752C111.653 107.505 116.243 100.328 124.163 96.1202C126.683 94.804 130.171 94.1402 133.658 94.1402H133.647ZM133.523 147.33C144.638 147.285 152.716 151.257 155.686 158.243C157.913 163.463 157.081 179.978 153.233 206.64C150.623 225.27 149.183 229.973 145.583 233.145C140.633 237.533 133.613 238.748 126.953 236.385H126.92C118.865 233.494 117.132 229.579 113.825 206.64C109.988 179.978 109.145 163.463 111.372 158.243C114.32 151.313 122.33 147.375 133.535 147.33H133.523Z" fill="#3E58E1"/>
</g>
<defs>
<clipPath id="clip0_8530:32596">
<rect width="270" height="270" fill="white" transform="translate(0.120605)"/>
</clipPath>
</defs>
</svg>

<svg width="271" height="270" fill="none" xmlns="http://www.w3.org/2000/svg"><g clip-path="url(#a)"><path d="M60.196 0A59.94 59.94 0 0 0 .12 60.075v149.85A59.94 59.94 0 0 0 60.196 270h149.85a59.95 59.95 0 0 0 55.538-37.064 59.931 59.931 0 0 0 4.537-23.011V60.075a59.932 59.932 0 0 0-17.556-42.519A59.946 59.946 0 0 0 210.046 0H60.196Zm73.406 28.89c26.28 0 50.04 10.148 68.13 29.104 13.77 14.31 21.51 29.464 25.47 49.41 1.35 6.638 1.35 24.75.079 32.22a95.69 95.69 0 0 1-36.45 59.58c-6.84 5.175-23.58 14.186-26.28 14.186-.99 0-1.08-1.023-.63-5.175.81-6.66 1.62-8.043 5.4-9.63 6.03-2.52 16.29-9.832 22.59-16.143a86.003 86.003 0 0 0 22.59-39.78c2.34-9.27 2.07-29.88-.54-39.42-8.19-30.33-32.94-53.91-63.27-60.21-8.82-1.8-24.84-1.8-33.75 0-30.69 6.3-56.07 31.05-63.81 62.19-2.07 8.46-2.07 29.07 0 37.53 5.13 20.61 18.45 39.51 35.91 50.76 3.42 2.25 7.56 4.59 9.27 5.31 3.78 1.62 4.59 2.97 5.31 9.63.45 4.05.337 5.22-.63 5.22-.63 0-5.22-1.98-10.08-4.32l-.45-.338c-27.81-13.68-45.63-36.832-52.11-67.635-1.62-7.942-1.89-26.91-.338-34.2 4.05-19.575 11.79-34.875 24.66-48.42 18.54-19.541 42.39-29.88 68.94-29.88l-.011.011Zm1.508 31.613c4.601.045 9.033.45 12.442 1.192 31.32 6.975 53.55 38.34 49.23 69.458-1.71 12.532-6.03 22.837-13.68 32.4-3.78 4.837-12.96 12.937-14.58 12.937-.259 0-.54-3.06-.54-6.783V162.9l4.68-5.58c17.64-21.127 16.38-50.647-2.88-70.02-7.47-7.537-16.11-11.97-27.27-14.017-7.2-1.328-8.73-1.328-16.29-.09-11.475 1.879-20.362 6.322-28.26 14.13-19.35 19.17-20.61 48.847-2.97 69.997l4.646 5.58v6.84c0 3.78-.303 6.84-.675 6.84-.337 0-2.97-1.8-5.76-4.05l-.382-.123c-9.36-7.47-17.64-20.723-21.06-33.717-2.07-7.852-2.07-22.77.09-30.6 5.67-21.127 21.24-37.519 42.84-45.214 4.612-1.63 12.746-2.474 20.407-2.373h.012Zm-1.463 33.637c3.488 0 6.975.675 9.495 2.003 5.49 2.846 9.99 8.381 11.7 14.164 5.22 17.752-13.59 33.3-30.6 25.357h-.169c-8.01-3.724-12.33-10.755-12.42-19.912 0-8.247 4.59-15.424 12.51-19.632 2.52-1.316 6.008-1.98 9.495-1.98h-.011Zm-.124 53.19c11.115-.045 19.193 3.927 22.163 10.913 2.227 5.22 1.395 21.735-2.453 48.397-2.61 18.63-4.05 23.333-7.65 26.505-4.95 4.388-11.97 5.603-18.63 3.24h-.033c-8.055-2.891-9.788-6.806-13.095-29.745-3.837-26.662-4.68-43.177-2.453-48.397 2.948-6.93 10.958-10.868 22.163-10.913h-.012Z" fill="#3E58E1"/></g><defs><clipPath id="a"><path fill="#fff" transform="translate(.12)" d="M0 0h270v270H0z"/></clipPath></defs></svg>
